icons/Filled/certificate.svg

<svg width="24" height="24" viewBox="0 0 24 24" fill="none" xmlns="http://www.w3.org/2000/svg">
<path fill-rule="evenodd" clip-rule="evenodd" d="M12.6799 15.4C11.5599 14.26 11.5499 12.42 12.6699 11.28C12.6899 10.55 12.9499 9.86997 13.4299 9.33997C13.9799 8.71997 14.7701 8.35997 15.6101 8.33997C16.1601 7.79997 16.8899 7.5 17.6699 7.5C18.4399 7.5 19.17 7.79997 19.72 8.33997C19.809 8.42897 20 8.40796 20 8.23096V6C20 4 19 3 17 3H5C3 3 2 4 2 6V14C2 16 3 17 5 17H12.6721C12.8841 17 13.037 16.782 12.947 16.589C12.778 16.226 12.6799 15.823 12.6799 15.4ZM6 7.25H12C12.414 7.25 12.75 7.586 12.75 8C12.75 8.414 12.414 8.75 12 8.75H6C5.586 8.75 5.25 8.414 5.25 8C5.25 7.586 5.586 7.25 6 7.25ZM9 12.75H6C5.586 12.75 5.25 12.414 5.25 12C5.25 11.586 5.586 11.25 6 11.25H9C9.414 11.25 9.75 11.586 9.75 12C9.75 12.414 9.414 12.75 9 12.75ZM21.5759 12.312C21.2069 11.993 21.1181 11.774 21.1521 11.29C21.1591 10.356 20.3009 9.73595 19.4089 9.84595C19.1089 9.86295 18.874 9.625 18.686 9.422C18.122 8.858 17.208 8.858 16.644 9.422C16.456 9.628 16.2209 9.86095 15.9209 9.84595C14.8589 9.72495 14.056 10.525 14.179 11.588C14.196 11.888 13.9579 12.123 13.7549 12.311C13.1909 12.875 13.1909 13.789 13.7549 14.353C14.1239 14.672 14.213 14.891 14.179 15.375C14.179 16.139 14.7751 16.758 15.5271 16.809L15.5259 16.812L14.333 20.999L16.1799 20.259C17.1329 19.879 18.2001 19.879 19.1531 20.259L21 21L19.8059 16.8101C20.5569 16.7591 21.1531 16.14 21.1531 15.376C21.1401 15.098 21.142 14.767 21.364 14.566C22.072 14.014 22.2439 12.969 21.5759 12.312ZM17.667 15C16.746 15 16 14.254 16 13.333C16 12.413 16.746 11.666 17.667 11.666C18.587 11.666 19.334 12.412 19.334 13.333C19.333 14.254 18.587 15 17.667 15Z" fill="#25314C"/>
</svg>

<svg id="Layer" xmlns="http://www.w3.org/2000/svg" viewBox="0 0 24 24"><defs><style>.cls-1{fill:#25314c;fill-rule:evenodd;}</style></defs><path id="certificate" class="cls-1" d="M12.68,15.4a2.946,2.946,0,0,1-.01-4.12,2.995,2.995,0,0,1,2.94-2.94,2.934,2.934,0,0,1,4.11,0A.16.16,0,0,0,20,8.231V6a2.652,2.652,0,0,0-3-3H5A2.652,2.652,0,0,0,2,6v8a2.652,2.652,0,0,0,3,3h7.672a.294.294,0,0,0,.275-.411A2.813,2.813,0,0,1,12.68,15.4ZM6,7.25h6a.75.75,0,0,1,0,1.5H6a.75.75,0,0,1,0-1.5Zm3,5.5H6a.75.75,0,0,1,0-1.5H9a.75.75,0,0,1,0,1.5Zm12.576-.437a1.02,1.02,0,0,1-.424-1.023A1.5,1.5,0,0,0,19.41,9.847a1,1,0,0,1-.723-.424,1.444,1.444,0,0,0-2.042,0,.993.993,0,0,1-.723.424,1.523,1.523,0,0,0-1.743,1.742,1,1,0,0,1-.424.724,1.444,1.444,0,0,0,0,2.041,1.015,1.015,0,0,1,.424,1.022,1.44,1.44,0,0,0,1.348,1.434h0v0L14.333,21l1.847-.74a4.019,4.019,0,0,1,2.973,0L21,21l-1.194-4.19a1.439,1.439,0,0,0,1.346-1.434.992.992,0,0,1,.212-.809A1.5,1.5,0,0,0,21.576,12.313ZM17.667,15a1.667,1.667,0,1,1,1.666-1.667A1.667,1.667,0,0,1,17.667,15Z"/></svg>
